app/client/src/assets/icons/blueprintjs/16px/notifications-snooze.svg

<?xml version="1.0" encoding="UTF-8"?>
<svg width="16px" height="16px" viewBox="0 0 16 16" version="1.1" xmlns="http://www.w3.org/2000/svg" xmlns:xlink="http://www.w3.org/1999/xlink">
    <title>Snooze-16</title>
    <defs>
        <path d="M9,14 C9,15.1 8.1,16 7,16 C5.9,16 5,15.1 5,14 L5,14 Z M7,0 C7.40441176,0 7.75475779,0.243295848 7.91189828,0.590747761 L7.9,0.6 L7.9,0.6 C7.2,1.2 7,1.95942017 7,2.5 C7,3.3 7.26666667,3.93333333 7.8,4.4 C7.26666667,5 7.00532269,5.62222222 7.01596806,6.26666667 C7.01775686,6.37495603 7.01924508,6.49453972 7.02043271,6.62541775 C7.03438527,8.16183294 8.2838389,9.4 9.82031744,9.4 L12,9.399 L12,10 C12,10.5107143 12.3880102,10.9352041 12.883801,10.9932398 L13,11 C13.55,11 14,11.45 14,12 C14,12.55 13.55,13 13,13 L13,13 L1,13 C0.45,13 0,12.55 0,12 C0,11.45 0.45,11 1,11 C1.55,11 2,10.55 2,10 L2,10 L2,6 C2,3.57 3.73,1.55 6.02,1.1 L6.02,1.1 L6,1 C6,0.45 6.45,0 7,0 Z" id="path-1"></path>
    </defs>
    <g id="Snooze-16" stroke="none" stroke-width="1" fill="none" fill-rule="evenodd">
        <g id="Path-4" transform="translate(1.000000, 0.000000)">
            <mask id="mask-2" fill="white">
                <use xlink:href="#path-1"></use>
            </mask>
            <use id="Combined-Shape" fill="#000000" xlink:href="#path-1"></use>
            <path d="M13,6.70175439 C13,6.35294297 12.7172325,6.07017544 12.3684211,6.07017544 L10.625,6.07017544 L10.625,6.07017544 L12.8334784,3.33560152 C12.9412279,3.20218439 13,3.03587023 13,2.86437657 L13,2.56470588 C13,2.25282744 12.7471726,2 12.4352941,2 L9.56140351,2 C9.25134891,2 9,2.25134891 9,2.56140351 C9,2.87145811 9.25134891,3.12280702 9.56140351,3.12280702 L11.375,3.12280702 L11.375,3.12280702 L9.22134045,5.79549256 C9.07810564,5.97324655 9,6.19465716 9,6.42293921 L9,6.70175439 C9,7.05056581 9.28276753,7.33333333 9.63157895,7.33333333 L12.3684211,7.33333333 C12.7172325,7.33333333 13,7.05056581 13,6.70175439 Z" id="Path-2" fill="#000000" fill-rule="nonzero"></path>
        </g>
    </g>
</svg>

<svg xmlns="http://www.w3.org/2000/svg" xmlns:xlink="http://www.w3.org/1999/xlink" width="16" height="16"><defs><path id="a" d="M9 14c0 1.1-.9 2-2 2s-2-.9-2-2ZM7 0c.404 0 .755.243.912.59L7.9.6c-.7.6-.9 1.36-.9 1.9 0 .8.267 1.433.8 1.9-.533.6-.795 1.222-.784 1.867l.004.358A2.8 2.8 0 0 0 9.82 9.4L12 9.399V10c0 .51.388.935.884.993L13 11c.55 0 1 .45 1 1s-.45 1-1 1H1c-.55 0-1-.45-1-1s.45-1 1-1 1-.45 1-1V6c0-2.43 1.73-4.45 4.02-4.9L6 1c0-.55.45-1 1-1Z"/></defs><g fill-rule="evenodd" transform="translate(1)"><use xlink:href="#a"/><path fill-rule="nonzero" d="M13 6.702a.632.632 0 0 0-.632-.632h-1.743l2.208-2.734A.75.75 0 0 0 13 2.864v-.3A.565.565 0 0 0 12.435 2H9.561a.561.561 0 1 0 0 1.123h1.814L9.221 5.795A1 1 0 0 0 9 6.423v.279c0 .349.283.631.632.631h2.736A.632.632 0 0 0 13 6.702Z"/></g></svg>
